public/bus.svg

<svg xmlns="http://www.w3.org/2000/svg" fill="none" viewBox="0 0 868 869">
  <g clip-path="url(#a)">
    <path fill="white" d="M601.815 263.172c-4.792-23.962-20.129-33.547-43.133-43.133-22.679-9.449-77.024-20.754-117.128-21.072-40.104.317-94.449 11.623-117.128 21.072-23.004 9.585-38.34 19.17-43.132 43.133l-17.252 132.841v183.044h29.712v28.706c0 35 51.217 35 51.217 0v-28.706h193.164v28.706c0 35 51.217 35 51.217 0v-28.706h29.713V396.013l-17.25-132.841Zm-233.297-30.673H514.59c14.378 0 14.378 21.567 0 21.567H368.517c-14.376 0-14.376-21.567.001-21.567Zm-49.134 289.176c-13.568 0-24.568-11.002-24.568-24.57 0-13.567 11-24.57 24.568-24.57 13.568 0 24.568 11.003 24.568 24.57.002 13.568-11 24.57-24.568 24.57Zm120.445-111.662H309.507c-12.759 0-15.431-9.167-14.177-18.402l13.428-96.349c1.844-11.707 5.813-19.423 21-19.423H553.35c15.188 0 19.155 7.716 20.999 19.423l13.429 96.349c1.252 9.234-1.42 18.402-14.179 18.402h-133.77Zm123.895 111.662c-13.568 0-24.568-11.002-24.568-24.57 0-13.567 11.001-24.57 24.568-24.57 13.567 0 24.568 11.003 24.568 24.57 0 13.568-11 24.57-24.568 24.57Z"/>
  </g>
  <defs>
    <clipPath id="a">
      <rect width="867.488" height="867.429" fill="white" transform="translate(0 .7852)"/>
    </clipPath>
  </defs>
</svg>

<svg width="868" height="869" viewBox="0 0 868 869" xmlns="http://www.w3.org/2000/svg">
<path fill="transparent" d="M441.17 726.995C606.856 726.899 741.092 592.506 740.996 426.821C740.899 261.135 606.507 126.899 440.821 126.995C275.136 127.092 140.899 261.484 140.996 427.17L126.679 742.178L441.17 726.995Z" />
<path fill="white" d="M601.815 263.172C597.023 239.21 581.686 229.625 558.682 220.039C536.003 210.59 481.658 199.285 441.554 198.967C401.45 199.284 347.105 210.59 324.426 220.039C301.422 229.624 286.086 239.209 281.294 263.172L264.042 396.013V579.057H293.754V607.763C293.754 642.763 344.971 642.763 344.971 607.763V579.057H439.528H439.827H538.135V607.763C538.135 642.763 589.352 642.763 589.352 607.763V579.057H619.065V396.013L601.815 263.172ZM368.518 232.499H439.829H514.59C528.968 232.499 528.968 254.066 514.59 254.066H439.653H368.517C354.141 254.066 354.141 232.499 368.518 232.499ZM319.384 521.675C305.816 521.675 294.816 510.673 294.816 497.105C294.816 483.538 305.816 472.535 319.384 472.535C332.952 472.535 343.952 483.538 343.952 497.105C343.954 510.673 332.952 521.675 319.384 521.675ZM439.829 410.013H309.507C296.748 410.013 294.076 400.846 295.33 391.611L308.758 295.262C310.602 283.555 314.571 275.839 329.758 275.839H439.654H553.35C568.538 275.839 572.505 283.555 574.349 295.262L587.778 391.611C589.03 400.845 586.358 410.013 573.599 410.013H439.829ZM563.724 521.675C550.156 521.675 539.156 510.673 539.156 497.105C539.156 483.538 550.157 472.535 563.724 472.535C577.291 472.535 588.292 483.538 588.292 497.105C588.292 510.673 577.292 521.675 563.724 521.675Z"/>
</svg>
